X: 1482
T: Fair and Forty   #2
T: dea\.ta\.muil's da\.fi\.ci\.d.
R: reel
%S: s:2 b:11(5+6)
B: O'Neill's Music of Ireland, 1482
O: J.O'Neill
Z: John B. Walsh, 8/22/96
M: C|
L: 1/8
K: G
"^A"[|] D2 |: ((3.G.G.G) BG d2 Bd | efge edBd | ceAc BdGB |1 ABcA GFED :|2 cAFA G2 |]
"^B"[|] d2 |: gfga bgdg | edef gdB [1 d | gfga bgdg | edcB A2Bd :|[2 G | DGBd gdBd | cAFA G2 |]
